X: 19268
T: Ivory Lady
R: reel
M: 4/4
K: Fmajor
|:F cd f c2 AG|A FF2 dc AG|F2 BAB FF2|BAGFGAFC|
F cd f c2 AG|A FF2 dc Af|dc BAB ccd|BAGFGAFD:|
|:A Acd f2 dc|z fdc dff2|dg ga g2 f2|dg gagafd|
A Acd f2 dc|z fdc dff2|F2 BAB ccd|1 BAGFGAFG:|2 BAGFCDFG||

